Adwaita++/actions/16/im-identi.ca.svg

<svg height="16" width="16" xmlns="http://www.w3.org/2000/svg">
  <path d="m7 0c-3.3137085 0-6 2.6862915-6 6v.0390625 3.9999995l-1 4 4-2h3c.8186 0 1.5970406-.164984 2.3066406-.458984-.004964-.011938-.0069115-.0251-.0117187-.037109.0127013-.005265.0264055-.008323.0390625-.013672-.0969099-.213332-.1714753-.438258-.2285156-.669922-.0087581-.046205-.0198197-.091997-.0273438-.138672-.0450867-.220605-.078125-.445641-.078125-.681641 0-.21129.0304765-.4144818.0625-.617187-.6017249.3597665-1.3006529.578125-2.0625.578125h-4v-4c0-2.2328283 1.7671717-4 4-4 2.2328276 0 4 1.7671719 4 4 0 .2173831-.030201.4254579-.0625.6328125.324958-.1980927.680458-.3505934 1.054688-.453125.323373-.0838412.656581-.1404114 1.005859-.140625.000661-.0000004.001291 0 .001953 0 0-.0066117-.001932-.0129247-.001953-.0195313.000479-.0064865.001953-.0129193.001953-.0195312 0-3.3137085-2.686292-6-6-6zm6 7.0390625c-1.662 0-3 1.338001-3 2.9999995 0 .978.471406 1.835813 1.191406 2.382813l1.808594 3.617187 1.808594-3.617187c.72-.547 1.191406-1.404812 1.191406-2.382813 0-1.6619985-1.338-2.9999995-3-2.9999995z" fill="#474747"/>
</svg>

<svg xmlns="http://www.w3.org/2000/svg" width="16" height="16" version="1.1">
 <defs>
  <style id="current-color-scheme" type="text/css">
   .ColorScheme-Text { color:#474747; } .ColorScheme-Highlight { color:#4285f4; }
  </style>
 </defs>
 <path style="fill:currentColor" class="ColorScheme-Text" d="M 7 0 C 3.6862915 0 1 2.6862915 1 6 L 1 6.0390625 L 1 10.039062 L 0 14.039062 L 4 12.039062 L 7 12.039062 C 7.8186 12.039062 8.5970406 11.874078 9.3066406 11.580078 C 9.3016766 11.56814 9.2997291 11.554978 9.2949219 11.542969 C 9.3076232 11.537704 9.3213274 11.534646 9.3339844 11.529297 C 9.2370745 11.315965 9.1625091 11.091039 9.1054688 10.859375 C 9.0967107 10.81317 9.0856491 10.767378 9.078125 10.720703 C 9.0330383 10.500098 9 10.275062 9 10.039062 C 9 9.827772 9.0304765 9.6245802 9.0625 9.421875 C 8.4607751 9.7816415 7.7618471 10 7 10 L 3 10 L 3 6 C 3 3.7671717 4.7671717 2 7 2 C 9.2328276 2 11 3.7671719 11 6 C 11 6.2173831 10.969799 6.4254579 10.9375 6.6328125 C 11.262458 6.4347198 11.617958 6.2822191 11.992188 6.1796875 C 12.315561 6.0958463 12.648769 6.0392761 12.998047 6.0390625 C 12.998708 6.0390621 12.999338 6.0390625 13 6.0390625 C 13 6.0324508 12.998068 6.0261378 12.998047 6.0195312 C 12.998526 6.0130447 13 6.0066119 13 6 C 13 2.6862915 10.313708 0 7 0 z M 13 7.0390625 C 11.338 7.0390625 10 8.3770635 10 10.039062 C 10 11.017062 10.471406 11.874875 11.191406 12.421875 L 13 16.039062 L 14.808594 12.421875 C 15.528594 11.874875 16 11.017063 16 10.039062 C 16 8.3770635 14.662 7.0390625 13 7.0390625 z"/>
</svg>
